X:1
T:Fugue V
T:Fugue V
T:from 6 Fugues for the Organ or Harpsichord
T:G.F. Handel (1685-1759)
%%score { ( 1 2 ) ( 3 4 ) 5 6 }
L:1/8
Q:1/4=58
M:4/4
K:C
V:1 alto1 nm="Organo"
V:2 alto1 
V:3 alto nm="Organo"
V:4 alto 
V:5 tenor nm="Organo"
V:6 bass nm="Organo"
V:1
"^Largo" z8 | z8 | z8 | z8 | z8 | z8 | z2 e2 F2 f2 | ^G2 A2 d3 e/d/ | ^c2 =c2 B3 g- | %9
 gf/e/ f3 e/^d/ eA | AB G3 F/E/ F2- | FE e3 ^d a2 | ^g2 =g2 ^f2 =f2 | e4- eA d2 | ^c2 =c2 B2 ^A2 | %15
 A2 d3 c/B/ cE | ^FE/D/ G3 F FG/A/ | ^D2 b2 c2 c'2 | ^d2 e2 a3 b/a/ | ^g2 =g2 ^f2 z f | %20
 Pe^f/g/ fe b B2 e- | ed/^c/ d3 =c cd/e/ | B4 A3 B/c/ | B E2 c2 ^A/=A/ ^A2 | A4- AG/^F/ G2 | %25
 z2 d2 E2 e2 | ^F2 G2 Mc3 d/c/ | z2 [^Ag]2 =A2 a2 | B2 c2 f3 g/f/ | e2 ^d2 =d3 e | %30
 ^c2 d3 e/f/ =c2 | d3 D A2 a2 | ^A2 ^a2 ^c2 d2 | g3 a/g/ ^f2 =f2 | e3 ^f/e/ ^dB MB2- | %35
 BA A3 B ^A2 | BA/G/ ^F2 E2 e2 | F2 f2 ^G2 A2 | d3 e/d/ ^c2 =c2 | Bc dc/B/ A3 d | G3 c2 B/A/ B2- | %41
 BA/G/ A3 G/^F/ G2 | ^cA f2 M^d3 =d/c/ | d3 e fe/d/ ^c2 | ^a3 c'/a/ =a2 fe | dc ^A=A GA/^A/ c2- | %46
 c^A/=A/ ^A3 c =A2 | Md3 e gc c2- | c^A/=A/ ^A4 =A2 | GA/B/ c3 ^A A=A/G/ | AB/^c/ d3 =c cB/A/ | %51
 Bc/d/ e3 ^d de/^f/ | g3 a/g/ ^f3 g/f/ | e3 ^f/e/ ^dB Me2- | e2 d4 c2 | B2 e2 A2 d2- | %56
 dc/B/ c2 PB2 ^A2 | A2 d2 ^c2 a2 | ^g2 =g2 ^f2 b2 | e2 a4 g2 | ^f3 g/f/ e3 d/c/ | B3 B ^cA d2- | %62
 d^c cd/e/ A3 B | P^GE z e Ped d2- | de ^d2 e=d/c/ B2 | A3 G/F/ E3 F/E/ | F3 G/F/ E4 | %67
 A3 B/A/ ^GE z e | ^d2 =d2 ^c2 =c2 | PB2 ^A2 =A3 B/A/ | P^G[Q:1/4=56] E2[Q:1/4=48] F3 PE2 | %71
[Q:1/4=46] M^D2[Q:1/4=45] A2[Q:1/4=44] M^G2[Q:1/4=29] A2- | %72
[Q:1/4=31]"^Adagissimo" A2 ^G2[Q:1/4=26][Q:1/4=20][Q:1/4=15][Q:1/4=21] A4 |] %73
V:2
 x8 | x8 | x8 | x8 | x8 | x8 | x8 | x8 | x8 | x8 | x8 | x8 | x8 | x8 | x8 | x8 | x8 | x8 | x8 | %19
 x8 | x8 | x8 | x8 | x8 | x8 | x8 | x4 x/4 x/4 x/- x2 x | x8 | x8 | x8 | x6 Px2 | x8 | x8 | x8 | %34
 x8 | x8 | x8 | x8 | x8 | x8 | x8 | x8 | x4 (3x/4 x/4 x/4- x2- x/ x | x8 | x8 | x8 | x8 | %47
 x4 Mx x3 | x8 | x8 | x8 | x8 | x8 | x8 | x8 | x8 | x8 | x8 | x8 | x8 | x8 | x8 | x8 | x8 | x8 | %65
 x8 | x8 | x8 | x8 | x8 | x8 | x4 (3x/8 x/8 x/8- x7/4 x2 | x2 Px- (3x/ x/ x/ x4 |] %73
V:3
 z8 | z8 | z8 | z2 A2 C2 c2 | ^D2 E2 A3 B/A/ | ^G2 =G2 ^F2 BA | ^GE A3 A Bd | E3 F/E/ DE/^F/ G2- | %8
 GA/G/ A4 G2 | c3 B A2 E2 | ^F3 E c3 d/c/ | B3 ^A =A2 ^d=d- | d^c/B/ ce A3 B/A/ | ^GE =G2 ^F2 =F2 | %14
 E^F/^G/ A3 =G/=F/ G2- | GF/E/ FE/D/ E2 C2 | B,2 ^A,2 =A,2 z2 | z8 | B,^F B E2 A, D2 | z4 z2 B2 | %20
 C2 c2 ^D2 E2 | A3 B/A/ ^GE A2- | A^G/^F/ [EG]2 =F,2 D2 | ^G,2 A,2 D3 E/D/ | ^C2 =C2 B,3 C/B,/ | %25
 G^F/E/ F D2 C/B,/ C2- | CB, C3 A,/G,/ A,A- | AD G3 F/E/ F2- | FE E3 D/C/ Dd- | dG c4 ^A2 | %30
 A3 F G2 A2- | AG/^F/ G3 =F/E/ FA- | AG/F/ G2 E2 AD | z8 | z2 A4 GE | F3 E/^D/ E3 ^F | G E2 ^D z4 | %37
 z8 | z2 ^G2 A=G/^F/ EF | G2 G3 ^F/E/ F2 | z4 D3 D | E3 ^F/E/ D3 d | G2 F A2 G G2 | %43
 GA ^G2 A3[K:alto1] a- | ag/f/ g3 g[K:alto] A2- | AA GF E3 E | F3 F G3 F- | FF G2 C2 CD/E/ | %48
 F3 E/D/ GE CD- | D2 CG ^F2 D2 | D3 A ^G2 E2 | E3 B A2 ^FB- | BG c3 B/A/ B2- | BA/^G/ A4 =G2 | %54
 F3 F E3 A | ^G2 =G2 ^F2 =F2 | E^G A4 =G2 | G2 F2 E2 c2 | B2 e2 ^d2 =d2 | ^c2 =c2 B3 c | %60
 A^F B3 A/^G/ A2- | AA G4 F2 | E2 E3 D/^C/ z2 | z8 | z8 | z4 z2 C2- | CC ^A,3 A, =A,E- | %67
 EE D4 A2- | AA ^GE A E3 | E3 D C2 B,2- | B,2 C2 D2 B,2 | A,3 A, B,2 ^F2 | E4 E4 |] %73
V:4
 x8 | x8 | x8 | x8 | x8 | x7 x/- Px/ | x8 | x8 | x8 | x8 | x8 | x8 | x8 | x8 | x8 | x8 | x8 | x8 | %18
 x8 | x8 | x8 | x8 | x8 | x8 | x8 | x8 | x8 | x8 | x8 | x8 | x8 | x8 | x8 | x8 | x8 | x8 | x8 | %37
 x8 | x8 | x8 | x8 | x8 | x8 | x7[K:alto1] x | x6[K:alto] x2 | x8 | x8 | x8 | x8 | x8 | x8 | x8 | %52
 x8 | x8 | x8 | x8 | x8 | x8 | x8 | x8 | x8 | x8 | x8 | x8 | x8 | x8 | x8 | x8 | x8 | x8 | x8 | %71
 x8 | x8 |] %73
V:5
 z2 E2 F,2 F2 | ^G,2 A,2 D3 E/D/ | ^C2 =C2 B,2 ED | C3 B, A,3 G, | ^F,B, G, E,2 F,^D, B, | %5
 E,E B,^C DA, D2- | D3 ^C DD, D2- | DC/B,/ C2 B,2 ^A,2 | A,2 ^FE ^DB, E2 | C2 z4 z2 | z8 | z8 | %12
 z8 | z8 | z4 z2 E,2 |[K:bass] F,,2 F,2 ^G,,2 A,,2 |[K:tenor] D,3 E,/D,/ ^C,2 A,2- | %17
 A, B,/A,/ G,^F, E,F,/G,/ F,E, | z8 | DE/D/ ^CB, ^A,^F, z2 | z8 | z8 | z8 | z8 | z8 | A,4 z4 | z8 | %27
 z8 | z8 | z2 z A ^FD G2- | GF/E/ FD E2 z2 | z8 | z8 | DC/B,/ C3 B, B,C/D/ | ^G,E, z4 z2 | z8 | %36
 B,2 B,3 A, A,E- | EA, D3 C CB,/A,/ | B,A z4 z2 | ED/C/ B,C DA, D2- | DC/B,/ C2 z4 | z8 | z8 | z8 | %44
 z8 | z8 | z8 | z4 z2 A,,^A,,/C,/ | D,,3 D, E,C, F,2 | E,2 ^D,2 =D,2 G,2 | ^F,2 =F,2 E,2 A,2 | z8 | %52
 z2 E2 ^D2 =D2 | ^C2 =C2 B,2 CB, | A,B,/C/ B,A, ^G,E, A,A,, | z8 | z8 | z8 | z8 | z8 | E2 ^D2 E4 | %61
 ^F2 E4 z2 | z4 z2 D2- | D2 C2 ^A,2 =A,^G, | A,3 B, C A2 ^G | z A, D3 C/B,/ z2 | z8 | z4 z2 C2 | %68
 B,4 z2 z A, | ^G,2 =G,2 ^F,2 =F,2 | E,^G, A,2 B,2 E,2 | ^F,2 D4 C2 | B,4 C4 |] %73
V:6
 z8 | z8 | z8 | z8 | z8 | z8 | z8 | z8 | z8 | z2 A,2 C,2 C2 | ^D,2 E,2 A,3 B,/A,/ | %11
 ^G,2 =G,2 ^F,2 =F,2 | E,2 E3 D/^C/ D2 | D3 ^C D3 D, | A,3 B,/C/ D2 C2 | C2 z4 z2 | z4 z2 C,2 | %17
 B,,2 B,,4 A,,2- | A,,2 G,,G, ^F,2 =F,2 | E,6 D,2 | E,2 A,4 G,2 | ^F,2 =F,2 E,4- | %22
 E,2 z E,2 D,/^C,/ D,2- | D,2 C,A,, F,2 G,2- | G,A,/G,/ ^F,G,/A,/ D,2 E,D, | C,2 D,2 G,2 A,C, | %26
 D,2 E,^F,/G,/ A,,2 F,2 | G,3 E C2 A,D | G,2 A,B,/C/ D,2 B,2 | C4 z4 | z4 z2 A,2 | %31
 ^A,,2 ^A,2 ^C,2 D,2 | G,3 G,2 A,/G,/ ^F,F, | E,2 ^D,2 =D,4- | D,2 C,2 B,,2 G,2 | A,2 B,2 C2 ^C2 | %36
 z2 B,,2 C,,2 C,2 | D,3 D, E,4 | E,4 A,3 A, | z4 z2 D,2 | E,,2 E,2 ^F,,2 G,,2 | %41
 C,3 D,/C,/ B,,2 ^A,,2 | A,,2 D,2 G,2 A,2 | ^A,2 B,2 =A,4 | D2 E2 F2 F,2 | ^A,4 C3 C | %46
 D,2 D2 E,2 F,2 | ^A,3 C/=A,/ A,2 z2 | z8 | z8 | z8 | ^G,2 =G,2 ^F,2 B,2 | E,2 z2 z4 | z8 | z8 | %55
 E, D2 ^C DA, B,A,/B,/ | C3 D EB, ED | ^CD/C/ DD, A,A,,/B,,/ C,D, | E,^F, G,A, B,F, P^G,F,/G,/ | %59
 A,E ^FE/F/ G^D E2 | z2 B,2 B,,2 C2 | ^D,2 E,2 A,3 B,/A,/ | ^G,2 =G,2 ^F,2 =F,2 | %63
 E,2 z C, D,2 E,2 | F,2 ^F,2 E,2 z E, | F,,2 F,2 ^G,,2 A,,2 | F,3 E,/D,/ ^C,2 =C,2 | %67
 F,3 G,/F,/ E,4- | E,8 | E,4- E,E, D,2- | D,C,/B,,/ C,A,, ^G,,2 =G,,2 | ^F,,2 =F,,2 E,,2 ^D,,2 | %72
 E,,4 A,,4 |] %73

